remix/Design/scissors-fill.svg

<svg viewBox="0 0 24 24" fill="currentColor" xmlns="http://www.w3.org/2000/svg"><path d="M9.68347 7.55885L12 9.87538L18.3744 3.50102C19.1554 2.71997 20.4217 2.71997 21.2028 3.50102L21.9099 4.20812L9.68347 16.4346C9.88726 16.9145 10 17.4424 10 17.9967C10 20.2058 8.20914 21.9967 6 21.9967C3.79086 21.9967 2 20.2058 2 17.9967C2 15.7876 3.79086 13.9967 6 13.9967C6.55427 13.9967 7.08222 14.1094 7.56215 14.3132L9.87868 11.9967L7.56215 9.68017C7.08222 9.88397 6.55427 9.9967 6 9.9967C3.79086 9.9967 2 8.20584 2 5.9967C2 3.78756 3.79086 1.9967 6 1.9967C8.20914 1.9967 10 3.78756 10 5.9967C10 6.55098 9.88726 7.07892 9.68347 7.55885ZM6 7.9967C7.10457 7.9967 8 7.10127 8 5.9967C8 4.89213 7.10457 3.9967 6 3.9967C4.89543 3.9967 4 4.89213 4 5.9967C4 7.10127 4.89543 7.9967 6 7.9967ZM6 19.9967C7.10457 19.9967 8 19.1013 8 17.9967C8 16.8921 7.10457 15.9967 6 15.9967C4.89543 15.9967 4 16.8921 4 17.9967C4 19.1013 4.89543 19.9967 6 19.9967ZM15.5346 13.41L21.9099 19.7853L21.2028 20.4924C20.4217 21.2734 19.1554 21.2734 18.3744 20.4924L13.4133 15.5313L15.5346 13.41Z"/></svg>

<svg viewBox="0 0 24 24" xmlns="http://www.w3.org/2000/svg"><path fill="none" d="M0 0h24v24H0Z"/><path d="M9.683 7.56L12 9.87l6.37-6.375v0c.78-.79 2.04-.79 2.82-.01 0 0 0 0 0 0l.7.7 -12.23 12.22v0c.86 2.03-.09 4.38-2.13 5.24 -2.04.86-4.39-.09-5.25-2.13 -.87-2.04.08-4.39 2.12-5.25 .99-.43 2.12-.43 3.12 0l2.31-2.317L7.51 9.63V9.63c-2.04.86-4.39-.09-5.25-2.13 -.87-2.04.08-4.39 2.12-5.25 2.03-.87 4.38.08 5.24 2.12 .42.99.42 2.12 0 3.12ZM6 7.99v0c1.1 0 2-.9 2-2 0-1.11-.9-2-2-2v0c-1.11 0-2 .89-2 2 0 1.1.89 2 2 2Zm0 12v0c1.1 0 2-.9 2-2 0-1.11-.9-2-2-2v0c-1.11 0-2 .89-2 2 0 1.1.89 2 2 2Zm9.535-6.587l6.37 6.37 -.71.7v0c-.79.78-2.05.78-2.83 0 -.01-.01-.01-.01-.01-.01l-4.96-4.961 2.12-2.122Z"/></svg>
